images/50970885.svg

<?xml version="1.0" encoding="UTF-8"?>
<svg xmlns="http://www.w3.org/2000/svg" xmlns:xlink="http://www.w3.org/1999/xlink" width="300pt" height="300pt" viewBox="0 0 300 300" version="1.1">
<defs>
<g>
<symbol overflow="visible" id="glyph0-0">
<path style="stroke:none;" d="M 0.546875 1.9375 L 0.546875 -7.75 L 6.046875 -7.75 L 6.046875 1.9375 Z M 1.171875 1.328125 L 5.4375 1.328125 L 5.4375 -7.140625 L 1.171875 -7.140625 Z M 1.171875 1.328125 "/>
</symbol>
<symbol overflow="visible" id="glyph0-1">
<path style="stroke:none;" d="M 4.328125 -7.28125 C 3.546875 -7.28125 2.921875 -6.984375 2.453125 -6.390625 C 1.992188 -5.804688 1.765625 -5.007812 1.765625 -4 C 1.765625 -2.988281 1.992188 -2.1875 2.453125 -1.59375 C 2.921875 -1.007812 3.546875 -0.71875 4.328125 -0.71875 C 5.117188 -0.71875 5.742188 -1.007812 6.203125 -1.59375 C 6.660156 -2.1875 6.890625 -2.988281 6.890625 -4 C 6.890625 -5.007812 6.660156 -5.804688 6.203125 -6.390625 C 5.742188 -6.984375 5.117188 -7.28125 4.328125 -7.28125 Z M 4.328125 -8.171875 C 5.453125 -8.171875 6.351562 -7.789062 7.03125 -7.03125 C 7.707031 -6.28125 8.046875 -5.269531 8.046875 -4 C 8.046875 -2.738281 7.707031 -1.726562 7.03125 -0.96875 C 6.351562 -0.21875 5.453125 0.15625 4.328125 0.15625 C 3.203125 0.15625 2.300781 -0.21875 1.625 -0.96875 C 0.957031 -1.71875 0.625 -2.726562 0.625 -4 C 0.625 -5.269531 0.957031 -6.28125 1.625 -7.03125 C 2.300781 -7.789062 3.203125 -8.171875 4.328125 -8.171875 Z M 4.328125 -8.171875 "/>
</symbol>
<symbol overflow="visible" id="glyph0-2">
<path style="stroke:none;" d="M 1.078125 -8.015625 L 2.546875 -8.015625 L 6.09375 -1.3125 L 6.09375 -8.015625 L 7.15625 -8.015625 L 7.15625 0 L 5.6875 0 L 2.125 -6.703125 L 2.125 0 L 1.078125 0 Z M 1.078125 -8.015625 "/>
</symbol>
<symbol overflow="visible" id="glyph0-3">
<path style="stroke:none;" d="M 1.078125 -8.015625 L 2.171875 -8.015625 L 2.171875 -4.734375 L 6.109375 -4.734375 L 6.109375 -8.015625 L 7.1875 -8.015625 L 7.1875 0 L 6.109375 0 L 6.109375 -3.8125 L 2.171875 -3.8125 L 2.171875 0 L 1.078125 0 Z M 1.078125 -8.015625 "/>
</symbol>
</g>
</defs>
<g id="surface21169">
<rect x="0" y="0" width="300" height="300" style="fill:rgb(100%,100%,100%);fill-opacity:1;stroke:none;"/>
<path style="fill:none;stroke-width:1.2;stroke-linecap:butt;stroke-linejoin:miter;stroke:rgb(100%,0%,0%);stroke-opacity:1;stroke-miterlimit:10;" d="M 167.996094 159.117188 L 177.554688 150.320312 "/>
<path style="fill:none;stroke-width:1.2;stroke-linecap:butt;stroke-linejoin:miter;stroke:rgb(0%,0%,0%);stroke-opacity:1;stroke-miterlimit:10;" d="M 177.554688 150.320312 L 187.113281 141.523438 "/>
<path style="fill:none;stroke-width:1.2;stroke-linecap:butt;stroke-linejoin:miter;stroke:rgb(0%,0%,0%);stroke-opacity:1;stroke-miterlimit:10;" d="M 169.832031 185.035156 L 168.914062 172.074219 "/>
<path style="fill:none;stroke-width:1.2;stroke-linecap:butt;stroke-linejoin:miter;stroke:rgb(100%,0%,0%);stroke-opacity:1;stroke-miterlimit:10;" d="M 168.914062 172.074219 L 167.996094 159.117188 "/>
<path style=" stroke:none;fill-rule:nonzero;fill:rgb(100%,100%,100%);fill-opacity:1;" d="M 163.996094 152.617188 L 172.996094 152.617188 L 172.996094 165.617188 L 163.996094 165.617188 Z M 163.996094 152.617188 "/>
<g style="fill:rgb(100%,0%,0%);fill-opacity:1;">
  <use xlink:href="#glyph0-1" x="163.996094" y="162.518555"/>
</g>
<path style="fill:none;stroke-width:1.2;stroke-linecap:butt;stroke-linejoin:miter;stroke:rgb(0%,0%,0%);stroke-opacity:1;stroke-miterlimit:10;" d="M 187.113281 141.523438 L 212.789062 145.5 "/>
<path style="fill:none;stroke-width:1.2;stroke-linecap:butt;stroke-linejoin:miter;stroke:rgb(0%,0%,0%);stroke-opacity:1;stroke-miterlimit:10;" d="M 212.789062 145.5 L 225.6875 168.050781 "/>
<path style="fill:none;stroke-width:1.2;stroke-linecap:butt;stroke-linejoin:miter;stroke:rgb(0%,0%,0%);stroke-opacity:1;stroke-miterlimit:10;" d="M 219.382812 144.71875 L 229.703125 162.761719 "/>
<path style="fill:none;stroke-width:1.2;stroke-linecap:butt;stroke-linejoin:miter;stroke:rgb(0%,0%,0%);stroke-opacity:1;stroke-miterlimit:10;" d="M 225.871094 123.050781 L 212.789062 145.5 "/>
<path style="fill:none;stroke-width:1.2;stroke-linecap:butt;stroke-linejoin:miter;stroke:rgb(0%,0%,0%);stroke-opacity:1;stroke-miterlimit:10;" d="M 225.6875 168.050781 L 251.667969 168.15625 "/>
<path style="fill:none;stroke-width:1.2;stroke-linecap:butt;stroke-linejoin:miter;stroke:rgb(0%,0%,0%);stroke-opacity:1;stroke-miterlimit:10;" d="M 225.6875 168.050781 L 216.097656 192.199219 "/>
<path style="fill:none;stroke-width:1.2;stroke-linecap:butt;stroke-linejoin:miter;stroke:rgb(0%,0%,0%);stroke-opacity:1;stroke-miterlimit:10;" d="M 251.667969 168.15625 L 264.75 145.710938 "/>
<path style="fill:none;stroke-width:1.2;stroke-linecap:butt;stroke-linejoin:miter;stroke:rgb(0%,0%,0%);stroke-opacity:1;stroke-miterlimit:10;" d="M 247.695312 162.835938 L 258.160156 144.875 "/>
<path style="fill:none;stroke-width:1.2;stroke-linecap:butt;stroke-linejoin:miter;stroke:rgb(0%,0%,0%);stroke-opacity:1;stroke-miterlimit:10;" d="M 264.75 145.710938 L 251.851562 123.15625 "/>
<path style="fill:none;stroke-width:1.2;stroke-linecap:butt;stroke-linejoin:miter;stroke:rgb(0%,0%,0%);stroke-opacity:1;stroke-miterlimit:10;" d="M 251.851562 123.15625 L 225.871094 123.050781 "/>
<path style="fill:none;stroke-width:1.2;stroke-linecap:butt;stroke-linejoin:miter;stroke:rgb(0%,0%,0%);stroke-opacity:1;stroke-miterlimit:10;" d="M 249.226562 129.257812 L 228.441406 129.175781 "/>
<path style="fill:none;stroke-width:1.2;stroke-linecap:butt;stroke-linejoin:miter;stroke:rgb(0%,0%,0%);stroke-opacity:1;stroke-miterlimit:10;" d="M 213.847656 194.269531 L 222.644531 203.828125 "/>
<path style="fill:none;stroke-width:1.2;stroke-linecap:butt;stroke-linejoin:miter;stroke:rgb(100%,0%,0%);stroke-opacity:1;stroke-miterlimit:10;" d="M 222.644531 203.828125 L 231.445312 213.386719 "/>
<path style="fill:none;stroke-width:1.2;stroke-linecap:butt;stroke-linejoin:miter;stroke:rgb(0%,0%,0%);stroke-opacity:1;stroke-miterlimit:10;" d="M 218.347656 190.128906 L 227.144531 199.6875 "/>
<path style="fill:none;stroke-width:1.2;stroke-linecap:butt;stroke-linejoin:miter;stroke:rgb(100%,0%,0%);stroke-opacity:1;stroke-miterlimit:10;" d="M 227.144531 199.6875 L 235.941406 209.246094 "/>
<path style="fill:none;stroke-width:1.2;stroke-linecap:butt;stroke-linejoin:miter;stroke:rgb(0%,0%,0%);stroke-opacity:1;stroke-miterlimit:10;" d="M 216.097656 192.199219 L 191.242188 199.757812 "/>
<path style=" stroke:none;fill-rule:nonzero;fill:rgb(100%,100%,100%);fill-opacity:1;" d="M 229.691406 204.816406 L 238.691406 204.816406 L 238.691406 217.816406 L 229.691406 217.816406 Z M 229.691406 204.816406 "/>
<g style="fill:rgb(100%,0%,0%);fill-opacity:1;">
  <use xlink:href="#glyph0-1" x="229.691406" y="214.717773"/>
</g>
<path style="fill:none;stroke-width:1.2;stroke-linecap:butt;stroke-linejoin:miter;stroke:rgb(0%,0%,0%);stroke-opacity:1;stroke-miterlimit:10;" d="M 191.242188 199.757812 L 169.832031 185.035156 "/>
<path style="fill:none;stroke-width:1.2;stroke-linecap:butt;stroke-linejoin:miter;stroke:rgb(0%,0%,0%);stroke-opacity:1;stroke-miterlimit:10;" d="M 185.636719 203.320312 L 168.507812 191.542969 "/>
<path style="fill:none;stroke-width:1.2;stroke-linecap:butt;stroke-linejoin:miter;stroke:rgb(0%,0%,0%);stroke-opacity:1;stroke-miterlimit:10;" d="M 189.195312 225.65625 L 191.242188 199.757812 "/>
<path style="fill:none;stroke-width:1.2;stroke-linecap:butt;stroke-linejoin:miter;stroke:rgb(0%,0%,0%);stroke-opacity:1;stroke-miterlimit:10;" d="M 169.832031 185.035156 L 146.378906 196.210938 "/>
<path style="fill:none;stroke-width:1.2;stroke-linecap:butt;stroke-linejoin:miter;stroke:rgb(0%,0%,0%);stroke-opacity:1;stroke-miterlimit:10;" d="M 146.378906 196.210938 L 144.332031 222.113281 "/>
<path style="fill:none;stroke-width:1.2;stroke-linecap:butt;stroke-linejoin:miter;stroke:rgb(0%,0%,0%);stroke-opacity:1;stroke-miterlimit:10;" d="M 152.269531 199.285156 L 150.632812 220.003906 "/>
<path style="fill:none;stroke-width:1.2;stroke-linecap:butt;stroke-linejoin:miter;stroke:rgb(0%,0%,0%);stroke-opacity:1;stroke-miterlimit:10;" d="M 144.332031 222.113281 L 132.605469 227.703125 "/>
<path style="fill:none;stroke-width:1.2;stroke-linecap:butt;stroke-linejoin:miter;stroke:rgb(0%,0%,100%);stroke-opacity:1;stroke-miterlimit:10;" d="M 132.605469 227.703125 L 120.878906 233.289062 "/>
<path style="fill:none;stroke-width:1.2;stroke-linecap:butt;stroke-linejoin:miter;stroke:rgb(0%,0%,0%);stroke-opacity:1;stroke-miterlimit:10;" d="M 144.332031 222.113281 L 165.742188 236.835938 "/>
<path style="fill:none;stroke-width:1.2;stroke-linecap:butt;stroke-linejoin:miter;stroke:rgb(0%,0%,100%);stroke-opacity:1;stroke-miterlimit:10;" d="M 120.878906 233.289062 L 110.175781 225.929688 "/>
<path style="fill:none;stroke-width:1.2;stroke-linecap:butt;stroke-linejoin:miter;stroke:rgb(0%,0%,0%);stroke-opacity:1;stroke-miterlimit:10;" d="M 110.175781 225.929688 L 99.472656 218.566406 "/>
<path style=" stroke:none;fill-rule:nonzero;fill:rgb(100%,100%,100%);fill-opacity:1;" d="M 112.878906 226.789062 L 129.878906 226.789062 L 129.878906 239.789062 L 112.878906 239.789062 Z M 112.878906 226.789062 "/>
<g style="fill:rgb(0%,0%,100%);fill-opacity:1;">
  <use xlink:href="#glyph0-2" x="112.878906" y="236.69043"/>
  <use xlink:href="#glyph0-3" x="120.862305" y="236.69043"/>
</g>
<path style="fill:none;stroke-width:1.2;stroke-linecap:butt;stroke-linejoin:miter;stroke:rgb(0%,0%,0%);stroke-opacity:1;stroke-miterlimit:10;" d="M 99.472656 218.566406 L 101.519531 192.667969 "/>
<path style="fill:none;stroke-width:1.2;stroke-linecap:butt;stroke-linejoin:miter;stroke:rgb(0%,0%,0%);stroke-opacity:1;stroke-miterlimit:10;" d="M 93.582031 215.496094 L 95.21875 194.777344 "/>
<path style="fill:none;stroke-width:1.2;stroke-linecap:butt;stroke-linejoin:miter;stroke:rgb(0%,0%,0%);stroke-opacity:1;stroke-miterlimit:10;" d="M 76.019531 229.746094 L 99.472656 218.566406 "/>
<path style="fill:none;stroke-width:1.2;stroke-linecap:butt;stroke-linejoin:miter;stroke:rgb(0%,0%,0%);stroke-opacity:1;stroke-miterlimit:10;" d="M 101.519531 192.667969 L 80.109375 177.945312 "/>
<path style="fill:none;stroke-width:1.2;stroke-linecap:butt;stroke-linejoin:miter;stroke:rgb(0%,0%,0%);stroke-opacity:1;stroke-miterlimit:10;" d="M 80.109375 177.945312 L 81.132812 164.996094 "/>
<path style="fill:none;stroke-width:1.2;stroke-linecap:butt;stroke-linejoin:miter;stroke:rgb(0%,0%,100%);stroke-opacity:1;stroke-miterlimit:10;" d="M 81.132812 164.996094 L 82.15625 152.042969 "/>
<path style="fill:none;stroke-width:1.2;stroke-linecap:butt;stroke-linejoin:miter;stroke:rgb(0%,0%,0%);stroke-opacity:1;stroke-miterlimit:10;" d="M 80.109375 177.945312 L 56.65625 189.125 "/>
<path style="fill:none;stroke-width:1.2;stroke-linecap:butt;stroke-linejoin:miter;stroke:rgb(0%,0%,0%);stroke-opacity:1;stroke-miterlimit:10;" d="M 80.394531 184.582031 L 61.632812 193.523438 "/>
<path style="fill:none;stroke-width:1.2;stroke-linecap:butt;stroke-linejoin:miter;stroke:rgb(0%,0%,100%);stroke-opacity:1;stroke-miterlimit:10;" d="M 82.15625 152.042969 L 93.882812 146.457031 "/>
<path style="fill:none;stroke-width:1.2;stroke-linecap:butt;stroke-linejoin:miter;stroke:rgb(0%,0%,0%);stroke-opacity:1;stroke-miterlimit:10;" d="M 93.882812 146.457031 L 105.609375 140.867188 "/>
<path style=" stroke:none;fill-rule:nonzero;fill:rgb(100%,100%,100%);fill-opacity:1;" d="M 74.15625 145.542969 L 91.15625 145.542969 L 91.15625 158.542969 L 74.15625 158.542969 Z M 74.15625 145.542969 "/>
<g style="fill:rgb(0%,0%,100%);fill-opacity:1;">
  <use xlink:href="#glyph0-2" x="74.15625" y="155.444336"/>
  <use xlink:href="#glyph0-3" x="82.139648" y="155.444336"/>
</g>
<path style="fill:none;stroke-width:1.2;stroke-linecap:butt;stroke-linejoin:miter;stroke:rgb(0%,0%,0%);stroke-opacity:1;stroke-miterlimit:10;" d="M 103.878906 143.386719 L 114.582031 150.746094 "/>
<path style="fill:none;stroke-width:1.2;stroke-linecap:butt;stroke-linejoin:miter;stroke:rgb(100%,0%,0%);stroke-opacity:1;stroke-miterlimit:10;" d="M 114.582031 150.746094 L 125.285156 158.109375 "/>
<path style="fill:none;stroke-width:1.2;stroke-linecap:butt;stroke-linejoin:miter;stroke:rgb(0%,0%,0%);stroke-opacity:1;stroke-miterlimit:10;" d="M 107.34375 138.347656 L 118.046875 145.710938 "/>
<path style="fill:none;stroke-width:1.2;stroke-linecap:butt;stroke-linejoin:miter;stroke:rgb(100%,0%,0%);stroke-opacity:1;stroke-miterlimit:10;" d="M 118.046875 145.710938 L 128.75 153.070312 "/>
<path style="fill:none;stroke-width:1.2;stroke-linecap:butt;stroke-linejoin:miter;stroke:rgb(0%,0%,0%);stroke-opacity:1;stroke-miterlimit:10;" d="M 105.609375 140.867188 L 107.65625 114.964844 "/>
<path style=" stroke:none;fill-rule:nonzero;fill:rgb(100%,100%,100%);fill-opacity:1;" d="M 123.019531 149.089844 L 132.019531 149.089844 L 132.019531 162.089844 L 123.019531 162.089844 Z M 123.019531 149.089844 "/>
<g style="fill:rgb(100%,0%,0%);fill-opacity:1;">
  <use xlink:href="#glyph0-1" x="123.019531" y="158.991211"/>
</g>
<path style="fill:none;stroke-width:1.2;stroke-linecap:butt;stroke-linejoin:miter;stroke:rgb(0%,0%,0%);stroke-opacity:1;stroke-miterlimit:10;" d="M 107.65625 114.964844 L 131.109375 103.789062 "/>
<path style="fill:none;stroke-width:1.2;stroke-linecap:butt;stroke-linejoin:miter;stroke:rgb(0%,0%,0%);stroke-opacity:1;stroke-miterlimit:10;" d="M 107.371094 108.328125 L 126.136719 99.386719 "/>
<path style="fill:none;stroke-width:1.2;stroke-linecap:butt;stroke-linejoin:miter;stroke:rgb(0%,0%,0%);stroke-opacity:1;stroke-miterlimit:10;" d="M 86.25 100.242188 L 107.65625 114.964844 "/>
<path style="fill:none;stroke-width:1.2;stroke-linecap:butt;stroke-linejoin:miter;stroke:rgb(0%,0%,0%);stroke-opacity:1;stroke-miterlimit:10;" d="M 131.109375 103.789062 L 133.15625 77.886719 "/>
<path style="fill:none;stroke-width:1.2;stroke-linecap:butt;stroke-linejoin:miter;stroke:rgb(0%,0%,0%);stroke-opacity:1;stroke-miterlimit:10;" d="M 133.15625 77.886719 L 111.75 63.164062 "/>
<path style="fill:none;stroke-width:1.2;stroke-linecap:butt;stroke-linejoin:miter;stroke:rgb(0%,0%,0%);stroke-opacity:1;stroke-miterlimit:10;" d="M 127.550781 81.453125 L 110.425781 69.675781 "/>
<path style="fill:none;stroke-width:1.2;stroke-linecap:butt;stroke-linejoin:miter;stroke:rgb(0%,0%,0%);stroke-opacity:1;stroke-miterlimit:10;" d="M 111.75 63.164062 L 88.296875 74.34375 "/>
<path style="fill:none;stroke-width:1.2;stroke-linecap:butt;stroke-linejoin:miter;stroke:rgb(0%,0%,0%);stroke-opacity:1;stroke-miterlimit:10;" d="M 88.296875 74.34375 L 86.25 100.242188 "/>
<path style="fill:none;stroke-width:1.2;stroke-linecap:butt;stroke-linejoin:miter;stroke:rgb(0%,0%,0%);stroke-opacity:1;stroke-miterlimit:10;" d="M 94.1875 77.414062 L 92.546875 98.136719 "/>
<path style="fill:none;stroke-width:1.2;stroke-linecap:butt;stroke-linejoin:miter;stroke:rgb(0%,0%,0%);stroke-opacity:1;stroke-miterlimit:10;" d="M 56.65625 189.125 L 54.609375 215.023438 "/>
<path style="fill:none;stroke-width:1.2;stroke-linecap:butt;stroke-linejoin:miter;stroke:rgb(0%,0%,0%);stroke-opacity:1;stroke-miterlimit:10;" d="M 56.65625 189.125 L 35.25 174.402344 "/>
<path style="fill:none;stroke-width:1.2;stroke-linecap:butt;stroke-linejoin:miter;stroke:rgb(0%,0%,0%);stroke-opacity:1;stroke-miterlimit:10;" d="M 54.609375 215.023438 L 76.019531 229.746094 "/>
<path style="fill:none;stroke-width:1.2;stroke-linecap:butt;stroke-linejoin:miter;stroke:rgb(0%,0%,0%);stroke-opacity:1;stroke-miterlimit:10;" d="M 60.214844 211.460938 L 77.339844 223.238281 "/>
<path style="fill:none;stroke-width:1.2;stroke-linecap:butt;stroke-linejoin:miter;stroke:rgb(0%,0%,0%);stroke-opacity:1;stroke-miterlimit:10;" d="M 165.742188 236.835938 L 189.195312 225.65625 "/>
<path style="fill:none;stroke-width:1.2;stroke-linecap:butt;stroke-linejoin:miter;stroke:rgb(0%,0%,0%);stroke-opacity:1;stroke-miterlimit:10;" d="M 165.457031 230.199219 L 184.21875 221.257812 "/>
</g>
</svg>

<svg xmlns="http://www.w3.org/2000/svg" xmlns:xlink="http://www.w3.org/1999/xlink" width="300pt" height="300pt" viewBox="0 0 300 300"><defs><symbol overflow="visible"><path d="M.547 1.938V-7.75h5.5v9.688zm.625-.61h4.266v-8.47H1.171zm0 0"/></symbol><symbol overflow="visible" id="a"><path d="M4.328-7.28c-.78 0-1.406.296-1.875.89-.46.585-.687 1.382-.687 2.39 0 1.012.226 1.813.687 2.406.47.586 1.094.875 1.875.875.79 0 1.414-.288 1.875-.874.457-.593.688-1.394.688-2.406 0-1.008-.23-1.805-.687-2.39-.46-.594-1.086-.89-1.875-.89zm0-.892c1.125 0 2.024.383 2.703 1.14C7.708-6.28 8.048-5.27 8.048-4c0 1.262-.34 2.273-1.016 3.03C6.353-.22 5.454.157 4.33.157S2.3-.22 1.625-.97c-.668-.75-1-1.757-1-3.03 0-1.27.332-2.28 1-3.03.676-.76 1.578-1.142 2.703-1.142zm0 0"/></symbol><symbol overflow="visible" id="b"><path d="M1.078-8.016h1.47l3.546 6.704v-6.704h1.062V0H5.688L2.124-6.703V0H1.078zm0 0"/></symbol><symbol overflow="visible" id="c"><path d="M1.078-8.016h1.094v3.282H6.11v-3.282h1.077V0H6.11v-3.813H2.17V0H1.078zm0 0"/></symbol></defs><g><path fill="#fff" d="M0 0h300v300H0z"/><path d="M167.996 159.117l9.56-8.797" stroke-width="1.2" stroke="#f00" stroke-miterlimit="10" fill="none"/><path d="M177.555 150.32l9.558-8.797M169.832 185.035l-.918-12.96" stroke-width="1.2" stroke="#000" stroke-miterlimit="10" fill="none"/><path d="M168.914 172.074l-.918-12.957" stroke-width="1.2" stroke="#f00" stroke-miterlimit="10" fill="none"/><path d="M163.996 152.617h9v13h-9zm0 0" fill="#fff"/><use xlink:href="#a" x="163.996" y="162.519" fill="#f00"/><path d="M187.113 141.523l25.676 3.977M212.79 145.5l12.898 22.55M219.383 144.72l10.32 18.042M225.87 123.05l-13.08 22.45M225.688 168.05l25.98.106M225.688 168.05l-9.59 24.15M251.668 168.156l13.082-22.445M247.695 162.836l10.465-17.96M264.75 145.71l-12.898-22.554M251.852 123.156l-25.98-.105M249.227 129.258l-20.786-.082M213.848 194.27l8.797 9.558" stroke-width="1.2" stroke="#000" stroke-miterlimit="10" fill="none"/><path d="M222.645 203.828l8.8 9.56" stroke-width="1.2" stroke="#f00" stroke-miterlimit="10" fill="none"/><path d="M218.348 190.13l8.797 9.558" stroke-width="1.2" stroke="#000" stroke-miterlimit="10" fill="none"/><path d="M227.145 199.688l8.796 9.558" stroke-width="1.2" stroke="#f00" stroke-miterlimit="10" fill="none"/><path d="M216.098 192.2l-24.856 7.558" stroke-width="1.2" stroke="#000" stroke-miterlimit="10" fill="none"/><path d="M229.69 204.816h9v13h-9zm0 0" fill="#fff"/><use xlink:href="#a" x="229.691" y="214.718" fill="#f00"/><path d="M191.242 199.758l-21.41-14.723M185.637 203.32l-17.13-11.777M189.195 225.656l2.047-25.898M169.832 185.035L146.38 196.21M146.38 196.21l-2.048 25.903M152.27 199.285l-1.637 20.72M144.332 222.113l-11.727 5.59" stroke-width="1.2" stroke="#000" stroke-miterlimit="10" fill="none"/><path d="M132.605 227.703l-11.726 5.586" stroke-width="1.2" stroke="#00f" stroke-miterlimit="10" fill="none"/><path d="M144.332 222.113l21.41 14.723" stroke-width="1.2" stroke="#000" stroke-miterlimit="10" fill="none"/><path d="M120.88 233.29l-10.704-7.36" stroke-width="1.2" stroke="#00f" stroke-miterlimit="10" fill="none"/><path d="M110.176 225.93l-10.703-7.364" stroke-width="1.2" stroke="#000" stroke-miterlimit="10" fill="none"/><path d="M112.88 226.79h17v13h-17zm0 0" fill="#fff"/><g fill="#00f"><use xlink:href="#b" x="112.879" y="236.69"/><use xlink:href="#c" x="120.862" y="236.69"/></g><path d="M99.473 218.566l2.047-25.898M93.582 215.496l1.637-20.72M76.02 229.746l23.453-11.18M101.52 192.668l-21.41-14.723M80.11 177.945l1.023-12.95" stroke-width="1.2" stroke="#000" stroke-miterlimit="10" fill="none"/><path d="M81.133 164.996l1.023-12.953" stroke-width="1.2" stroke="#00f" stroke-miterlimit="10" fill="none"/><path d="M80.11 177.945l-23.454 11.18M80.395 184.582l-18.762 8.94" stroke-width="1.2" stroke="#000" stroke-miterlimit="10" fill="none"/><path d="M82.156 152.043l11.727-5.586" stroke-width="1.2" stroke="#00f" stroke-miterlimit="10" fill="none"/><path d="M93.883 146.457l11.726-5.59" stroke-width="1.2" stroke="#000" stroke-miterlimit="10" fill="none"/><path d="M74.156 145.543h17v13h-17zm0 0" fill="#fff"/><g fill="#00f"><use xlink:href="#b" x="74.156" y="155.444"/><use xlink:href="#c" x="82.14" y="155.444"/></g><path d="M103.88 143.387l10.702 7.36" stroke-width="1.2" stroke="#000" stroke-miterlimit="10" fill="none"/><path d="M114.582 150.746l10.703 7.363" stroke-width="1.2" stroke="#f00" stroke-miterlimit="10" fill="none"/><path d="M107.344 138.348l10.703 7.363" stroke-width="1.2" stroke="#000" stroke-miterlimit="10" fill="none"/><path d="M118.047 145.71l10.703 7.36" stroke-width="1.2" stroke="#f00" stroke-miterlimit="10" fill="none"/><path d="M105.61 140.867l2.046-25.902" stroke-width="1.2" stroke="#000" stroke-miterlimit="10" fill="none"/><path d="M123.02 149.09h9v13h-9zm0 0" fill="#fff"/><use xlink:href="#a" x="123.02" y="158.991" fill="#f00"/><path d="M107.656 114.965l23.453-11.176M107.37 108.328l18.767-8.94M86.25 100.242l21.406 14.723M131.11 103.79l2.046-25.903M133.156 77.887L111.75 63.164M127.55 81.453l-17.124-11.777M111.75 63.164l-23.453 11.18M88.297 74.344l-2.047 25.898M94.188 77.414l-1.64 20.723M56.656 189.125l-2.047 25.898M56.656 189.125L35.25 174.402M54.61 215.023l21.41 14.723M60.215 211.46L77.34 223.24M165.742 236.836l23.453-11.18M165.457 230.2l18.762-8.942" stroke-width="1.2" stroke="#000" stroke-miterlimit="10" fill="none"/></g></svg>
